outputs/icons/communication/comms_chat_round.svg

<svg xmlns="http://www.w3.org/2000/svg" width="1200" height="1200" fill="none"><path fill="#000" d="M151.251 597.22c0-260.799 212.386-472.22 474.374-472.22C887.615 125 1100 336.421 1100 597.22c0 260.805-212.385 472.225-474.375 472.225H151.24c-26.353 0-52.716-26.235-51.176-50.165l108.971-196.02c-36.849-67.165-57.784-144.22-57.784-226.04m474.374-393.517c-218.324 0-395.311 176.185-395.311 393.517 0 73.44 20.17 142.065 55.274 200.83a39.2 39.2 0 0 1 4.033 30.925L196.674 990.74h428.951c218.325 0 395.315-176.185 395.315-393.52 0-217.332-176.99-393.517-395.315-393.517"/></svg>

<svg width="1200" height="1200" viewBox="0 0 1200 1200" fill="none" xmlns="http://www.w3.org/2000/svg"><path d="M151.251 597.22C151.251 336.421 363.637 125 625.625 125C887.615 125 1100 336.421 1100 597.22C1100 858.025 887.615 1069.445 625.625 1069.445C539.16 1069.445 414.792 1069.445 414.792 1069.445H151.24C124.887 1069.445 98.524 1043.21 100.064 1019.28L209.035 823.26C172.186 756.095 151.251 679.04 151.251 597.22ZM625.625 203.703C407.301 203.703 230.314 379.888 230.314 597.22C230.314 670.66 250.484 739.285 285.588 798.05C291.154 807.36 292.612 818.555 289.621 828.975L196.674 990.74H414.792C414.792 990.74 547.775 990.74 625.625 990.74C843.95 990.74 1020.94 814.555 1020.94 597.22C1020.94 379.888 843.95 203.703 625.625 203.703Z" fill="#1D1E23"/></svg>
